X:1
T: Sir William Stirling's Strathspey
M: C|
B: James Campbell's Collection 1798
Z: source from Highland Music Trust, chords by Gary Whaley
L: 1/8
Z:
Z:NOTE: The second part may be played an octave higher.
K: D
D[|F<Ad>c TB>Ad>F |TB>Ad>F "A"TE>DE>F |"D"D/F/Ad>A TB>Ad>A | "G"B<d"D"A>F "A"E2 "D"D |
|F<Ad>c TB>Ad>F |TB>Ad>F "A"TE>DE>F |"D"D/F/Ad>A TB>Ad>A | "G"B<d"D"F<d "A"E2 "D"DF/G/ |]
[|"D"A>DTF>D A<DG/F/E/D/|"A"E>A,C>A, E>A,D/C/B,/A,/|"D"A>DTF>D A<DG/F/E/D/|"A"EA,A,B,/C/ {C}"D"D DF/G/|
"D"A<DTF<D A<DF<D|"A"E<A,TC<A, E<A,TC<A,|"D"D>AF<A "G"G<B"D"F<d |"D"D<af<d "A"TE2 D |]